icons-common/filter.svg

<svg height="1em" width="auto" viewBox="0 0 105 105" fill="currentColor" xmlns="http://www.w3.org/2000/svg">
    <path d="M22.8177 31.8737C42.5776 31.1632 62.3835 31.1632 82.1435 31.8737C84.3492 31.9573 86.0955 33.6708 85.9576 35.7188C85.8657 37.5995 84.1654 39.1041 82.1435 39.1877C72.2635 39.6056 62.3835 39.6474 52.4576 39.6892C42.5776 39.6474 32.6977 39.6056 22.7717 39.1877C20.6119 39.0623 18.9117 37.3487 19.0036 35.3426C19.0955 33.4619 20.7957 31.9573 22.8177 31.8737Z"
          />
    <path d="M33.9383 48.1735C46.3457 47.463 58.7071 47.463 71.1145 48.1735C75.9856 48.5079 75.9856 55.1949 71.1145 55.4875C58.7071 56.198 46.3457 56.198 33.9383 55.4875C31.7325 55.3203 30.0782 53.5649 30.216 51.5588C30.3539 49.7199 31.9623 48.2989 33.9383 48.1735Z"
          />
    <path d="M46.6672 64.5145C51.1706 63.9294 62.4751 62.383 61.3722 69.0701C61.0046 70.4911 59.7639 71.4941 58.3393 71.8285C54.4792 72.539 50.5732 72.539 46.6672 71.8285C42.5314 71.0344 42.5773 65.2668 46.6672 64.5145Z"
          />
</svg>

<svg xmlns="http://www.w3.org/2000/svg" width="auto" height="1em" fill="currentColor" viewBox="0 0 105 105">
    <path d="M22.818 31.874a826 826 0 0 1 59.326 0c2.205.083 3.951 1.797 3.814 3.845-.092 1.88-1.793 3.385-3.814 3.469-9.88.418-19.76.46-29.686.501-9.88-.042-19.76-.083-29.686-.501-2.16-.126-3.86-1.84-3.768-3.845.091-1.881 1.792-3.386 3.814-3.47m11.12 16.301a324 324 0 0 1 37.177 0c4.87.334 4.87 7.02 0 7.313-12.408.711-24.77.711-37.177 0-2.206-.167-3.86-1.922-3.722-3.928.138-1.84 1.746-3.26 3.722-3.386m12.729 16.342c4.504-.586 15.808-2.132 14.705 4.555-.367 1.421-1.608 2.424-3.033 2.759-3.86.71-7.766.71-11.672 0-4.136-.795-4.09-6.562 0-7.314"/>
</svg>
